icons/speech-bubble-check.svg

<svg xmlns="http://www.w3.org/2000/svg" width="24" height="24" viewBox="0 0 24 24">
  <path d="M15,3 C19.5522847,3 23,6.44771525 23,11 C23,15.5522847 19.5522847,19 15,19 L15,19 L14.492,19 L14.4215793,19.0906275 C13.7103901,19.9663638 12.948642,20.6393906 11.8907103,21.256749 L11.8907103,21.256749 L11.5946555,21.4238497 L11.2369286,21.6140163 L10.9086251,21.7821926 C9.57755795,22.4597178 8,21.4937799 8,20 L8,20 L8,19 C4.27285013,19 1,15.3634999 1,11 C1,6.5377729 4.49099359,3 9,3 L9,3 Z M15.1616337,8.25016214 C14.7475097,7.8847586 14.1155778,7.92425435 13.7501742,8.33837836 L13.7501742,8.33837836 L10.9700121,11.488 L10.2498499,10.6717117 L10.1610152,10.5828086 C9.78851489,10.2539073 9.22065875,10.2461999 8.83839043,10.5834955 C8.42426642,10.948899 8.38477067,11.580831 8.75017421,11.994955 L8.75017421,11.994955 L10.2207624,13.6616216 L10.3105198,13.7513955 C10.7177952,14.1104909 11.3507811,14.0805663 11.7204382,13.6616216 L11.7204382,13.6616216 L15.2498499,9.66162164 L15.327,9.5624086 C15.6069605,9.15185442 15.543902,8.58745772 15.1616337,8.25016214 Z"/>
</svg>

<svg xmlns="http://www.w3.org/2000/svg" viewBox="0 0 24 24">
  <path d="M15 3c4.55 0 8 3.45 8 8s-3.45 8-8 8h-.5l-.08.1a8.85 8.85 0 0 1-2.53 2.16l-.3.16-.35.2-.33.16A2 2 0 0 1 8 20v-1c-3.73 0-7-3.64-7-8 0-4.46 3.5-8 8-8zm.16 5.25a1 1 0 0 0-1.41.09l-2.78 3.15-.72-.82-.09-.09A1 1 0 0 0 8.75 12l1.47 1.67.1.1a1 1 0 0 0 1.4-.1l3.53-4 .08-.1a1 1 0 0 0-.17-1.31z"/>
</svg>
